;FLAVOR:Repetier
;TIME:2010
;Generated with Cura_SteamEngine 3.4.1
M104 S200
M109 S200
M82 ;absolute extrusion mode
G28 ;Home
G1 X0 Y0 Z15.0 F6000 ;Move the platform down 15mm
G92 E0
G1 F200 E3
G92 E0
G92 E0
G1 F1500 E-6.5
;LAYER_COUNT:69
;LAYER:0
M107
G0 F3600 X45.623 Y49.607 Z0.3
;TYPE:SKIRT
G1 F1500 E0
G1 F1800 X46.222 Y49.092 E0.03941
G1 X46.87 Y48.641 E0.0788
G1 X47.561 Y48.257 E0.11824
G1 X48.286 Y47.945 E0.15762
G1 X49.039 Y47.708 E0.197
G1 X49.813 Y47.549 E0.23642
G1 X50.598 Y47.468 E0.27579
G1 X51 Y47.458 E0.29586
G1 X89 Y47.458 E2.19168
G1 X89.789 Y47.498 E2.2311
G1 X90.569 Y47.617 E2.27046
G1 X91.334 Y47.815 E2.30989
G1 X92.074 Y48.089 E2.34925
G1 X92.783 Y48.437 E2.38866
G1 X93.454 Y48.855 E2.4281
G1 X94.078 Y49.338 E2.46747
G1 X94.651 Y49.881 E2.50685
G1 X95.166 Y50.48 E2.54626
G1 X95.617 Y51.128 E2.58565
G1 X96.001 Y51.819 E2.62509
G1 X96.313 Y52.544 E2.66447
G1 X96.55 Y53.297 E2.70385
G1 X96.709 Y54.071 E2.74327
G1 X96.79 Y54.856 E2.78264
G1 X96.8 Y55.258 E2.80271
G1 X96.8 Y74.258 E3.75062
G1 X96.76 Y75.047 E3.79003
G1 X96.641 Y75.827 E3.8294
G1 X96.443 Y76.592 E3.86882
G1 X96.169 Y77.332 E3.90819
G1 X95.99 Y77.72 E3.92951
G1 X90.798 Y88.204 E4.51318
G1 X90.412 Y88.893 E4.55258
G1 X89.958 Y89.539 E4.59198
G1 X89.442 Y90.136 E4.63134
G1 X88.868 Y90.678 E4.67073
G1 X88.241 Y91.16 E4.71019
G1 X87.57 Y91.575 E4.74955
G1 X86.86 Y91.92 E4.78893
G1 X86.118 Y92.192 E4.82836
G1 X85.353 Y92.387 E4.86774
G1 X84.572 Y92.504 E4.90714
G1 X83.783 Y92.542 E4.94655
G1 X82.995 Y92.499 E4.98592
G1 X82.215 Y92.378 E5.0253
G1 X81.451 Y92.177 E5.06472
G1 X80.711 Y91.901 E5.10412
G1 X80.003 Y91.551 E5.14352
G1 X79.334 Y91.131 E5.18293
G1 X78.711 Y90.646 E5.22232
G1 X78.14 Y90.101 E5.2617
G1 X77.627 Y89.5 E5.30112
G1 X77.049 Y88.636 E5.35298
G1 X76.351 Y87.425 E5.42272
G1 X75.947 Y86.881 E5.45653
G1 X75.442 Y86.324 E5.49404
G1 X74.874 Y85.809 E5.53229
G1 X74.272 Y85.362 E5.56969
G1 X73.63 Y84.977 E5.60704
G1 X72.943 Y84.653 E5.64494
G1 X72.229 Y84.397 E5.68278
G1 X71.501 Y84.215 E5.72022
G1 X70.757 Y84.104 E5.75775
G1 X70 Y84.068 E5.79556
G1 X69.243 Y84.104 E5.83337
G1 X68.499 Y84.215 E5.87089
G1 X67.771 Y84.397 E5.90833
G1 X67.057 Y84.653 E5.94617
G1 X66.37 Y84.977 E5.98407
G1 X65.727 Y85.363 E6.02149
G1 X65.127 Y85.808 E6.05875
G1 X64.561 Y86.32 E6.09683
G1 X64.051 Y86.884 E6.13477
G1 X63.642 Y87.435 E6.169
G1 X62.95 Y88.636 E6.23815
G1 X62.522 Y89.299 E6.27753
G1 X62.029 Y89.916 E6.31693
G1 X61.476 Y90.48 E6.35633
G1 X60.868 Y90.985 E6.39577
G1 X60.213 Y91.425 E6.43513
G1 X59.517 Y91.798 E6.47453
G1 X58.786 Y92.098 E6.51395
G1 X58.029 Y92.322 E6.55334
G1 X57.254 Y92.469 E6.59269
G1 X56.467 Y92.537 E6.6321
G1 X55.677 Y92.525 E6.67152
G1 X54.893 Y92.433 E6.7109
G1 X54.122 Y92.262 E6.7503
G1 X53.372 Y92.014 E6.78971
G1 X52.651 Y91.692 E6.82911
G1 X51.967 Y91.298 E6.86849
G1 X51.325 Y90.838 E6.90789
G1 X50.734 Y90.314 E6.94729
G1 X50.199 Y89.734 E6.98666
G1 X49.724 Y89.102 E7.0261
G1 X49.202 Y88.204 E7.07793
G1 X44.01 Y77.72 E7.6616
G1 X43.696 Y76.995 E7.70102
G1 X43.457 Y76.243 E7.74038
G1 X43.295 Y75.47 E7.77979
G1 X43.212 Y74.684 E7.81922
G1 X43.2 Y74.258 E7.84048
G1 X43.2 Y55.258 E8.78839
G1 X43.24 Y54.469 E8.82781
G1 X43.359 Y53.689 E8.86717
G1 X43.557 Y52.924 E8.9066
G1 X43.831 Y52.184 E8.94597
G1 X44.179 Y51.475 E8.98537
G1 X44.597 Y50.804 E9.02481
G1 X45.08 Y50.18 E9.06418
G1 X45.623 Y49.607 E9.10356
G0 F3600 X46.016 Y49.788
G1 F1800 X46.611 Y49.3 E9.14195
G1 X47.253 Y48.877 E9.18031
G1 X47.936 Y48.522 E9.21871
G1 X48.651 Y48.241 E9.25704
G1 X49.393 Y48.035 E9.29546
G1 X50.151 Y47.907 E9.33381
G1 X51 Y47.858 E9.37624
G1 X89 Y47.858 E11.27207
G1 X89.768 Y47.898 E11.31043
G1 X90.528 Y48.017 E11.34881
G1 X91.271 Y48.215 E11.38717
G1 X91.99 Y48.489 E11.42556
G1 X92.676 Y48.836 E11.46392
G1 X93.323 Y49.252 E11.50229
G1 X93.923 Y49.733 E11.54066
G1 X94.47 Y50.274 E11.57904
G1 X94.958 Y50.869 E11.61743
G1 X95.381 Y51.511 E11.65579
G1 X95.736 Y52.194 E11.69419
G1 X96.017 Y52.909 E11.73252
G1 X96.223 Y53.651 E11.77094
G1 X96.351 Y54.409 E11.80929
G1 X96.4 Y55.258 E11.85172
G1 X96.4 Y74.258 E12.79963
G1 X96.36 Y75.026 E12.838
G1 X96.241 Y75.786 E12.87638
G1 X96.043 Y76.529 E12.91474
G1 X95.631 Y77.542 E12.9693
G1 X90.439 Y88.026 E13.55297
G1 X90.063 Y88.697 E13.59135
G1 X89.618 Y89.325 E13.62975
G1 X89.111 Y89.903 E13.6681
G1 X88.547 Y90.425 E13.70644
G1 X87.931 Y90.887 E13.74486
G1 X87.271 Y91.282 E13.78323
G1 X86.574 Y91.606 E13.82158
G1 X85.846 Y91.856 E13.85998
G1 X85.097 Y92.029 E13.89833
G1 X84.334 Y92.123 E13.93669
G1 X83.565 Y92.138 E13.97506
G1 X82.798 Y92.073 E14.01346
G1 X82.043 Y91.928 E14.05182
G1 X81.306 Y91.706 E14.09022
G1 X80.597 Y91.409 E14.12857
G1 X79.922 Y91.04 E14.16695
G1 X79.29 Y90.602 E14.20531
G1 X78.706 Y90.102 E14.24367
G1 X78.177 Y89.543 E14.28207
G1 X77.709 Y88.933 E14.32042
G1 X77.396 Y88.436 E14.34973
G1 X76.691 Y87.211 E14.42024
G1 X76.258 Y86.63 E14.45639
G1 X75.715 Y86.03 E14.49676
G1 X75.137 Y85.507 E14.53565
G1 X74.49 Y85.027 E14.57584
G1 X73.82 Y84.625 E14.61483
G1 X73.1 Y84.285 E14.65455
G1 X72.341 Y84.013 E14.69478
G1 X71.575 Y83.821 E14.73417
G1 X70.795 Y83.705 E14.77352
G1 X70 Y83.667 E14.81322
G1 X69.205 Y83.705 E14.85293
G1 X68.425 Y83.821 E14.89227
G1 X67.659 Y84.013 E14.93167
G1 X66.9 Y84.285 E14.9719
G1 X66.18 Y84.625 E15.01162
G1 X65.509 Y85.027 E15.05065
G1 X64.864 Y85.506 E15.09073
G1 X64.278 Y86.037 E15.13018
G1 X63.745 Y86.625 E15.16977
G1 X63.31 Y87.211 E15.20619
G1 X62.604 Y88.436 E15.27672
G1 X62.186 Y89.082 E15.31511
G1 X61.703 Y89.681 E15.3535
G1 X61.16 Y90.226 E15.39188
G1 X60.564 Y90.712 E15.43025
G1 X59.921 Y91.134 E15.46862
G1 X59.237 Y91.486 E15.507
G1 X58.521 Y91.766 E15.54536
G1 X57.779 Y91.97 E15.58375
G1 X57.021 Y92.095 E15.62208
G1 X56.253 Y92.142 E15.66046
G1 X55.484 Y92.108 E15.69887
G1 X54.724 Y91.995 E15.7372
G1 X53.979 Y91.803 E15.77558
G1 X53.258 Y91.535 E15.81396
G1 X52.568 Y91.194 E15.85236
G1 X51.918 Y90.783 E15.89072
G1 X51.314 Y90.307 E15.92909
G1 X50.763 Y89.77 E15.96748
G1 X50.27 Y89.18 E16.00583
G1 X49.842 Y88.541 E16.0442
G1 X49.561 Y88.026 E16.07347
G1 X44.369 Y77.542 E16.65715
G1 X44.064 Y76.836 E16.69552
G1 X43.833 Y76.102 E16.73391
G1 X43.681 Y75.348 E16.77228
G1 X43.6 Y74.258 E16.82681
G1 X43.6 Y55.258 E17.77473
G1 X43.64 Y54.49 E17.81309
G1 X43.759 Y53.73 E17.85147
G1 X43.957 Y52.987 E17.88983
G1 X44.231 Y52.268 E17.92822
G1 X44.578 Y51.582 E17.96658
G1 X44.994 Y50.935 E18.00495
G1 X45.475 Y50.335 E18.04332
G1 X46.016 Y49.788 E18.0817
G0 F3600 X46.408 Y49.974
G1 F1800 X46.998 Y49.515 E18.11899
G1 X47.634 Y49.12 E18.15634
G1 X48.308 Y48.796 E18.19365
G1 X49.013 Y48.546 E18.23097
G1 X49.741 Y48.372 E18.26832
G1 X50.483 Y48.277 E18.30564
G1 X51 Y48.258 E18.33145
G1 X89 Y48.258 E20.22727
G1 X89.747 Y48.298 E20.2646
G1 X90.485 Y48.417 E20.30189
G1 X91.207 Y48.615 E20.33924
G1 X91.903 Y48.888 E20.37654
G1 X92.566 Y49.235 E20.41387
G1 X93.189 Y49.65 E20.45122
G1 X93.763 Y50.129 E20.48852
G1 X94.284 Y50.666 E20.52585
G1 X94.743 Y51.256 E20.56314
G1 X95.138 Y51.892 E20.60049
G1 X95.462 Y52.566 E20.6378
G1 X95.712 Y53.271 E20.67512
G1 X95.886 Y53.999 E20.71246
G1 X95.981 Y54.741 E20.74978
G1 X96 Y55.258 E20.77559
G1 X96 Y74.258 E21.72351
G1 X95.96 Y75.005 E21.76083
G1 X95.841 Y75.743 E21.79812
G1 X95.643 Y76.465 E21.83548
G1 X95.273 Y77.365 E21.88402
G1 X90.081 Y87.849 E22.4677
G1 X89.714 Y88.5 E22.50498
G1 X89.279 Y89.109 E22.54232
G1 X88.782 Y89.668 E22.57964
G1 X88.228 Y90.17 E22.61694
G1 X87.623 Y90.611 E22.65429
G1 X86.975 Y90.985 E22.69161
G1 X86.291 Y91.287 E22.72892
G1 X85.578 Y91.515 E22.76626
G1 X84.845 Y91.665 E22.80359
G1 X84.101 Y91.736 E22.84088
G1 X83.352 Y91.727 E22.87825
G1 X82.61 Y91.639 E22.91553
G1 X81.881 Y91.471 E22.95285
G1 X81.173 Y91.227 E22.99021
G1 X80.496 Y90.909 E23.02753
G1 X79.857 Y90.521 E23.06482
G1 X79.263 Y90.066 E23.10215
G1 X78.721 Y89.551 E23.13945
G1 X78.237 Y88.98 E23.1768
G1 X77.742 Y88.236 E23.22138
G1 X77.023 Y86.988 E23.29324
G1 X76.565 Y86.371 E23.33157
G1 X76.009 Y85.757 E23.3729
G1 X75.388 Y85.195 E23.41468
G1 X74.712 Y84.694 E23.45666
G1 X74.002 Y84.268 E23.49797
G1 X73.253 Y83.914 E23.5393
G1 X72.46 Y83.63 E23.58133
G1 X71.663 Y83.43 E23.62232
G1 X70.832 Y83.307 E23.66423
G1 X70 Y83.267 E23.70579
G1 X69.168 Y83.307 E23.74735
G1 X68.337 Y83.43 E23.78926
G1 X67.54 Y83.63 E23.83025
G1 X66.747 Y83.914 E23.87227
G1 X65.998 Y84.268 E23.91361
G1 X65.286 Y84.695 E23.95503
G1 X64.613 Y85.194 E23.99682
G1 X63.995 Y85.754 E24.03843
G1 X63.433 Y86.374 E24.08018
G1 X62.973 Y86.994 E24.1187
G1 X62.257 Y88.237 E24.19026
G1 X61.85 Y88.864 E24.22756
G1 X61.378 Y89.444 E24.26486
G1 X60.846 Y89.971 E24.30222
G1 X60.262 Y90.437 E24.3395
G1 X59.631 Y90.839 E24.37682
G1 X58.96 Y91.171 E24.41417
G1 X58.258 Y91.43 E24.4515
G1 X57.533 Y91.612 E24.4888
G1 X56.792 Y91.716 E24.52613
G1 X56.044 Y91.74 E24.56347
G1 X55.298 Y91.685 E24.60078
G1 X54.563 Y91.55 E24.63807
G1 X53.845 Y91.337 E24.67543
G1 X53.155 Y91.049 E24.71273
G1 X52.499 Y90.689 E24.75007
G1 X51.886 Y90.261 E24.78737
G1 X51.321 Y89.77 E24.82471
G1 X50.813 Y89.221 E24.86203
G1 X50.365 Y88.622 E24.89934
G1 X49.919 Y87.849 E24.94387
G1 X44.727 Y77.365 E25.52754
G1 X44.431 Y76.677 E25.56491
G1 X44.211 Y75.963 E25.60218
G1 X44.068 Y75.228 E25.63954
G1 X44 Y74.258 E25.68805
G1 X44 Y55.258 E26.63597
G1 X44.04 Y54.511 E26.67329
G1 X44.159 Y53.773 E26.71058
G1 X44.357 Y53.051 E26.74793
G1 X44.63 Y52.355 E26.78523
G1 X44.977 Y51.692 E26.82257
G1 X45.392 Y51.069 E26.85991
G1 X45.871 Y50.495 E26.89721
G1 X46.408 Y49.974 E26.93454
G0 F3600 X46.265 Y50.66
G1 F1800 X46.799 Y50.167 E26.9708
G1 X47.384 Y49.737 E27.00702
G1 X48.013 Y49.373 E27.04328
G1 X48.678 Y49.08 E27.07953
G1 X49.371 Y48.862 E27.11578
G1 X50.083 Y48.722 E27.15198
G1 X51 Y48.658 E27.19784
G1 X89 Y48.658 E29.09367
G1 X89.725 Y48.698 E29.12989
G1 X90.442 Y48.817 E29.16615
G1 X91.141 Y49.015 E29.2024
G1 X91.814 Y49.288 E29.23863
G1 X92.453 Y49.633 E29.27486
G1 X93.05 Y50.047 E29.31111
G1 X93.598 Y50.523 E29.34732
G1 X94.091 Y51.057 E29.38358
G1 X94.521 Y51.642 E29.4198
G1 X94.885 Y52.271 E29.45606
G1 X95.178 Y52.936 E29.49231
G1 X95.396 Y53.629 E29.52856
G1 X95.536 Y54.341 E29.56476
G1 X95.6 Y55.258 E29.61062
G1 X95.6 Y74.258 E30.55853
G1 X95.56 Y74.983 E30.59476
G1 X95.441 Y75.7 E30.63102
G1 X95.243 Y76.399 E30.66726
G1 X94.914 Y77.187 E30.70987
G1 X89.722 Y87.671 E31.29354
G1 X89.365 Y88.303 E31.32975
G1 X88.94 Y88.892 E31.36599
G1 X88.453 Y89.431 E31.40223
G1 X87.909 Y89.913 E31.43849
G1 X87.316 Y90.332 E31.47472
G1 X86.681 Y90.684 E31.51094
G1 X86.01 Y90.964 E31.54721
G1 X85.313 Y91.168 E31.58345
G1 X84.598 Y91.295 E31.61968
G1 X83.873 Y91.342 E31.65592
G1 X83.148 Y91.309 E31.69213
G1 X82.43 Y91.197 E31.72838
G1 X81.729 Y91.006 E31.76463
G1 X81.053 Y90.74 E31.80088
G1 X80.411 Y90.401 E31.8371
G1 X79.81 Y89.993 E31.87334
G1 X79.257 Y89.522 E31.90958
G1 X78.759 Y88.993 E31.94582
G1 X78.323 Y88.412 E31.98206
G1 X78.089 Y88.037 E32.00412
G1 X77.36 Y86.771 E32.077
G1 X76.872 Y86.114 E32.11783
G1 X76.287 Y85.469 E32.16127
G1 X75.645 Y84.887 E32.20451
G1 X74.938 Y84.363 E32.24841
G1 X74.196 Y83.918 E32.29158
G1 X73.4 Y83.542 E32.3355
G1 X72.578 Y83.248 E32.37905
G1 X71.737 Y83.036 E32.42232
G1 X70.87 Y82.908 E32.46604
G1 X70 Y82.866 E32.5095
G1 X69.13 Y82.908 E32.55295
G1 X68.263 Y83.036 E32.59668
G1 X67.422 Y83.248 E32.63995
G1 X66.6 Y83.542 E32.6835
G1 X65.804 Y83.918 E32.72742
G1 X65.063 Y84.362 E32.77052
G1 X64.354 Y84.888 E32.81456
G1 X63.711 Y85.47 E32.85783
G1 X63.131 Y86.111 E32.90096
G1 X62.638 Y86.775 E32.94222
G1 X61.911 Y88.037 E33.01488
G1 X61.514 Y88.645 E33.05111
G1 X61.053 Y89.207 E33.08737
G1 X60.533 Y89.714 E33.1236
G1 X59.96 Y90.161 E33.15986
G1 X59.342 Y90.542 E33.19608
G1 X58.685 Y90.853 E33.23235
G1 X57.999 Y91.09 E33.26856
G1 X57.29 Y91.25 E33.30482
G1 X56.569 Y91.331 E33.34101
G1 X55.842 Y91.333 E33.37729
G1 X55.12 Y91.254 E33.41352
G1 X54.411 Y91.097 E33.44975
G1 X53.723 Y90.863 E33.48601
G1 X53.066 Y90.555 E33.52221
G1 X52.446 Y90.176 E33.55846
G1 X51.871 Y89.731 E33.59473
G1 X51.349 Y89.226 E33.63097
G1 X50.886 Y88.667 E33.66718
G1 X50.487 Y88.06 E33.70342
G1 X50.278 Y87.671 E33.72545
G1 X45.086 Y77.187 E34.30913
G1 X44.799 Y76.519 E34.3454
G1 X44.589 Y75.824 E34.38162
G1 X44.455 Y75.11 E34.41787
G1 X44.4 Y74.258 E34.46046
G1 X44.4 Y55.258 E35.40837
G1 X44.44 Y54.533 E35.4446
G1 X44.559 Y53.816 E35.48086
G1 X44.757 Y53.117 E35.51711
G1 X45.03 Y52.444 E35.55334
G1 X45.375 Y51.805 E35.58957
G1 X45.789 Y51.208 E35.62581
G1 X46.265 Y50.66 E35.66203
G0 F3600 X46.659 Y50.831
G1 F1800 X47.189 Y50.367 E35.69717
G1 X47.768 Y49.967 E35.73228
G1 X48.389 Y49.635 E35.76741
G1 X49.043 Y49.375 E35.80252
G1 X49.723 Y49.191 E35.83767
G1 X50.419 Y49.085 E35.87279
G1 X51 Y49.058 E35.90181
G1 X89 Y49.058 E37.79764
G1 X89.703 Y49.098 E37.83277
G1 X90.397 Y49.217 E37.8679
G1 X91.072 Y49.415 E37.90299
G1 X91.721 Y49.687 E37.9381
G1 X92.335 Y50.032 E37.97324
G1 X92.906 Y50.443 E38.00834
G1 X93.427 Y50.917 E38.04348
G1 X93.891 Y51.447 E38.07862
G1 X94.291 Y52.026 E38.11373
G1 X94.623 Y52.647 E38.14886
G1 X94.883 Y53.301 E38.18397
G1 X95.067 Y53.981 E38.21912
G1 X95.173 Y54.677 E38.25424
G1 X95.2 Y55.258 E38.28326
G1 X95.2 Y74.258 E39.23117
G1 X95.16 Y74.961 E39.2663
G1 X95.041 Y75.655 E39.30143
G1 X94.843 Y76.33 E39.33653
G1 X94.556 Y77.01 E39.37335
G1 X89.364 Y87.494 E39.95703
G1 X89.016 Y88.106 E39.99215
G1 X88.601 Y88.674 E40.02724
G1 X88.125 Y89.192 E40.06234
G1 X87.592 Y89.653 E40.0975
G1 X87.011 Y90.05 E40.13261
G1 X86.389 Y90.379 E40.16771
G1 X85.733 Y90.636 E40.20286
G1 X85.053 Y90.816 E40.23796
G1 X84.356 Y90.918 E40.2731
G1 X83.652 Y90.94 E40.30824
G1 X82.951 Y90.882 E40.34333
G1 X82.26 Y90.746 E40.37847
G1 X81.59 Y90.532 E40.41356
G1 X80.948 Y90.243 E40.44868
G1 X80.342 Y89.883 E40.48385
G1 X79.782 Y89.457 E40.51895
G1 X79.273 Y88.97 E40.5541
G1 X78.823 Y88.429 E40.5892
G1 X78.436 Y87.837 E40.62449
G1 X77.696 Y86.553 E40.69843
G1 X77.187 Y85.867 E40.74104
G1 X76.565 Y85.181 E40.78724
G1 X75.897 Y84.576 E40.83221
G1 X75.161 Y84.03 E40.87793
G1 X74.383 Y83.564 E40.92317
G1 X73.561 Y83.175 E40.96854
G1 X72.688 Y82.863 E41.01479
G1 X71.815 Y82.643 E41.05971
G1 X70.917 Y82.51 E41.105
G1 X70 Y82.466 E41.1508
G1 X69.083 Y82.51 E41.1966
G1 X68.185 Y82.643 E41.24189
G1 X67.312 Y82.863 E41.28681
G1 X66.439 Y83.175 E41.33306
G1 X65.617 Y83.564 E41.37843
G1 X64.838 Y84.031 E41.42374
G1 X64.109 Y84.571 E41.469
G1 X63.429 Y85.188 E41.51481
G1 X62.816 Y85.864 E41.56034
G1 X62.301 Y86.557 E41.60342
G1 X61.564 Y87.837 E41.6771
G1 X61.179 Y88.426 E41.71221
G1 X60.729 Y88.968 E41.74736
G1 X60.22 Y89.455 E41.7825
G1 X59.66 Y89.881 E41.81761
G1 X59.055 Y90.241 E41.85273
G1 X58.413 Y90.53 E41.88785
G1 X57.743 Y90.745 E41.92296
G1 X57.052 Y90.882 E41.9581
G1 X56.351 Y90.94 E41.9932
G1 X55.647 Y90.918 E42.02834
G1 X54.95 Y90.816 E42.06348
G1 X54.27 Y90.637 E42.09856
G1 X53.614 Y90.381 E42.13369
G1 X52.991 Y90.052 E42.16884
G1 X52.41 Y89.655 E42.20395
G1 X51.878 Y89.195 E42.23904
G1 X51.401 Y88.677 E42.27417
G1 X50.985 Y88.108 E42.30933
G1 X50.636 Y87.494 E42.34457
G1 X45.444 Y77.01 E42.92824
G1 X45.168 Y76.362 E42.96338
G1 X44.967 Y75.687 E42.99852
G1 X44.844 Y74.994 E43.03363
G1 X44.8 Y74.258 E43.07042
G1 X44.8 Y55.258 E44.01833
G1 X44.84 Y54.555 E44.05346
G1 X44.959 Y53.861 E44.08859
G1 X45.157 Y53.186 E44.12369
G1 X45.429 Y52.537 E44.15879
G1 X45.774 Y51.923 E44.19393
G1 X46.185 Y51.352 E44.22903
G1 X46.659 Y50.831 E44.26417
G0 F3600 X47.053 Y51.009
G1 F1800 X47.578 Y50.575 E44.29815
G1 X48.15 Y50.206 E44.33211
G1 X48.762 Y49.907 E44.3661
G1 X49.404 Y49.682 E44.40004
G1 X50.069 Y49.533 E44.43403
G1 X51 Y49.458 E44.48063
G1 X89 Y49.458 E46.37646
G1 X89.68 Y49.498 E46.41044
G1 X90.35 Y49.617 E46.44439
G1 X91.002 Y49.814 E46.47838
G1 X91.626 Y50.086 E46.51234
G1 X92.214 Y50.43 E46.54632
G1 X92.758 Y50.84 E46.58031
G1 X93.249 Y51.311 E46.61425
G1 X93.683 Y51.836 E46.64824
G1 X94.052 Y52.408 E46.6822
G1 X94.351 Y53.02 E46.71618
G1 X94.576 Y53.662 E46.75012
G1 X94.725 Y54.327 E46.78412
G1 X94.8 Y55.258 E46.83072
G1 X94.8 Y74.258 E47.77863
G1 X94.76 Y74.938 E47.81261
G1 X94.641 Y75.608 E47.84656
