;FLAVOR:Repetier
;TIME:2587
;Generated with Cura_SteamEngine 3.4.1
M104 S200
M109 S200
M82 ;absolute extrusion mode
G28 ;Home
G1 X0 Y0 Z15.0 F6000 ;Move the platform down 15mm
G92 E0
G1 F200 E3
G92 E0
G92 E0
G1 F1500 E-6.5
;LAYER_COUNT:69
;LAYER:0
M107
G0 F3600 X45.623 Y45.505 Z0.3
;TYPE:SKIRT
G1 F1500 E0
G1 F1800 X46.222 Y44.99 E0.03941
G1 X46.87 Y44.539 E0.0788
G1 X47.561 Y44.155 E0.11824
G1 X48.286 Y43.843 E0.15762
G1 X49.039 Y43.606 E0.197
G1 X49.813 Y43.447 E0.23642
G1 X50.598 Y43.366 E0.27579
G1 X51 Y43.356 E0.29586
G1 X89 Y43.356 E2.19168
G1 X89.789 Y43.396 E2.2311
G1 X90.569 Y43.515 E2.27046
G1 X91.334 Y43.713 E2.30989
G1 X92.074 Y43.987 E2.34925
G1 X92.783 Y44.335 E2.38866
G1 X93.454 Y44.753 E2.4281
G1 X94.078 Y45.236 E2.46747
G1 X94.651 Y45.779 E2.50685
G1 X95.166 Y46.378 E2.54626
G1 X95.617 Y47.026 E2.58565
G1 X96.001 Y47.717 E2.62509
G1 X96.313 Y48.442 E2.66447
G1 X96.55 Y49.195 E2.70385
G1 X96.709 Y49.969 E2.74327
G1 X96.79 Y50.754 E2.78264
G1 X96.8 Y51.156 E2.80271
G1 X96.8 Y70.156 E3.75062
G1 X96.76 Y70.945 E3.79003
G1 X96.641 Y71.725 E3.8294
G1 X96.427 Y72.54 E3.87144
G1 X90.428 Y91.228 E4.85064
G1 X90.149 Y91.967 E4.89005
G1 X89.796 Y92.673 E4.92943
G1 X89.374 Y93.341 E4.96885
G1 X88.887 Y93.962 E5.00823
G1 X88.339 Y94.531 E5.04764
G1 X87.737 Y95.042 E5.08703
G1 X87.086 Y95.489 E5.12643
G1 X86.393 Y95.868 E5.16584
G1 X85.665 Y96.175 E5.20525
G1 X84.911 Y96.407 E5.24461
G1 X84.136 Y96.561 E5.28403
G1 X83.35 Y96.636 E5.32343
G1 X82.56 Y96.632 E5.36284
G1 X81.775 Y96.547 E5.40223
G1 X81.003 Y96.384 E5.4416
G1 X80.251 Y96.143 E5.48099
G1 X79.527 Y95.827 E5.5204
G1 X78.838 Y95.44 E5.55983
G1 X78.193 Y94.986 E5.59918
G1 X77.596 Y94.468 E5.63861
G1 X77.055 Y93.893 E5.678
G1 X76.575 Y93.266 E5.7174
G1 X76.243 Y92.739 E5.74847
G1 X76.194 Y92.654 E5.75337
G1 X75.125 Y91.466 E5.8331
G1 X73.827 Y90.523 E5.91314
G1 X72.369 Y89.875 E5.99274
G1 X70.799 Y89.541 E6.07282
G1 X69.201 Y89.541 E6.15255
G1 X67.631 Y89.875 E6.23263
G1 X66.173 Y90.523 E6.31223
G1 X64.875 Y91.466 E6.39227
G1 X63.806 Y92.654 E6.472
G1 X63.757 Y92.739 E6.4769
G1 X63.328 Y93.403 E6.51634
G1 X62.835 Y94.019 E6.5557
G1 X62.282 Y94.583 E6.59511
G1 X61.674 Y95.088 E6.63454
G1 X61.019 Y95.528 E6.67391
G1 X60.323 Y95.9 E6.71328
G1 X59.592 Y96.2 E6.7527
G1 X58.835 Y96.425 E6.7921
G1 X58.059 Y96.572 E6.8315
G1 X57.272 Y96.639 E6.87091
G1 X56.483 Y96.627 E6.91028
G1 X55.698 Y96.535 E6.94971
G1 X54.927 Y96.364 E6.98911
G1 X54.178 Y96.116 E7.02847
G1 X53.457 Y95.793 E7.06789
G1 X52.772 Y95.4 E7.10729
G1 X52.131 Y94.939 E7.14668
G1 X51.54 Y94.415 E7.18608
G1 X51.005 Y93.835 E7.22545
G1 X50.531 Y93.203 E7.26486
G1 X50.123 Y92.527 E7.30426
G1 X49.786 Y91.812 E7.34369
G1 X49.572 Y91.228 E7.37472
G1 X43.573 Y72.54 E8.35393
G1 X43.37 Y71.777 E8.39332
G1 X43.245 Y70.997 E8.43273
G1 X43.2 Y70.156 E8.47475
G1 X43.2 Y51.156 E9.42266
G1 X43.24 Y50.367 E9.46208
G1 X43.359 Y49.587 E9.50144
G1 X43.557 Y48.822 E9.54087
G1 X43.831 Y48.082 E9.58023
G1 X44.179 Y47.373 E9.61964
G1 X44.597 Y46.702 E9.65908
G1 X45.08 Y46.078 E9.69845
G1 X45.623 Y45.505 E9.73783
G0 F3600 X46.016 Y45.686
G1 F1800 X46.611 Y45.198 E9.77622
G1 X47.253 Y44.775 E9.81458
G1 X47.936 Y44.42 E9.85298
G1 X48.651 Y44.139 E9.89131
G1 X49.393 Y43.933 E9.92973
G1 X50.151 Y43.805 E9.96808
G1 X51 Y43.756 E10.01051
G1 X89 Y43.756 E11.90633
G1 X89.768 Y43.796 E11.9447
G1 X90.528 Y43.915 E11.98308
G1 X91.271 Y44.113 E12.02144
G1 X91.99 Y44.387 E12.05983
G1 X92.676 Y44.734 E12.09818
G1 X93.323 Y45.15 E12.13656
G1 X93.923 Y45.631 E12.17493
G1 X94.47 Y46.172 E12.21331
G1 X94.958 Y46.767 E12.2517
G1 X95.381 Y47.409 E12.29006
G1 X95.736 Y48.092 E12.32846
G1 X96.017 Y48.807 E12.36679
G1 X96.223 Y49.549 E12.40521
G1 X96.351 Y50.307 E12.44356
G1 X96.4 Y51.156 E12.48599
G1 X96.4 Y70.156 E13.4339
G1 X96.36 Y70.924 E13.47227
G1 X96.241 Y71.684 E13.51065
G1 X96.046 Y72.418 E13.54854
G1 X90.047 Y91.106 E14.52774
G1 X89.774 Y91.825 E14.56611
G1 X89.428 Y92.512 E14.60449
G1 X89.013 Y93.159 E14.64284
G1 X88.532 Y93.76 E14.68124
G1 X87.992 Y94.307 E14.71959
G1 X87.398 Y94.796 E14.75797
G1 X86.756 Y95.22 E14.79636
G1 X86.074 Y95.576 E14.83474
G1 X85.359 Y95.858 E14.87309
G1 X84.618 Y96.065 E14.91147
G1 X83.86 Y96.194 E14.94983
G1 X83.092 Y96.243 E14.98822
G1 X82.324 Y96.213 E15.02657
G1 X81.563 Y96.103 E15.06493
G1 X80.817 Y95.914 E15.10332
G1 X80.095 Y95.649 E15.14169
G1 X79.404 Y95.311 E15.18007
G1 X78.752 Y94.903 E15.21844
G1 X78.146 Y94.429 E15.25683
G1 X77.593 Y93.895 E15.29518
G1 X77.098 Y93.306 E15.33357
G1 X76.59 Y92.54 E15.37942
G1 X76.518 Y92.415 E15.38662
G1 X75.396 Y91.169 E15.47027
G1 X74.028 Y90.175 E15.55463
G1 X72.496 Y89.493 E15.6383
G1 X70.839 Y89.141 E15.72281
G1 X69.161 Y89.141 E15.80653
G1 X67.504 Y89.493 E15.89104
G1 X65.972 Y90.175 E15.9747
G1 X64.604 Y91.169 E16.05907
G1 X63.482 Y92.415 E16.14272
G1 X63.41 Y92.54 E16.14991
G1 X62.992 Y93.185 E16.18826
G1 X62.509 Y93.784 E16.22665
G1 X61.966 Y94.329 E16.26503
G1 X61.37 Y94.815 E16.3034
G1 X60.727 Y95.236 E16.34174
G1 X60.043 Y95.589 E16.38014
G1 X59.327 Y95.868 E16.41848
G1 X58.585 Y96.072 E16.45687
G1 X57.826 Y96.198 E16.49526
G1 X57.058 Y96.244 E16.53364
G1 X56.29 Y96.21 E16.572
G1 X55.529 Y96.097 E16.61038
G1 X54.784 Y95.905 E16.64876
G1 X54.063 Y95.637 E16.68714
G1 X53.374 Y95.295 E16.72551
G1 X52.724 Y94.884 E16.76388
G1 X52.12 Y94.408 E16.80225
G1 X51.569 Y93.871 E16.84063
G1 X51.076 Y93.281 E16.87899
G1 X50.648 Y92.642 E16.91736
G1 X50.288 Y91.962 E16.95575
G1 X49.953 Y91.106 E17.00161
G1 X43.954 Y72.418 E17.98082
G1 X43.757 Y71.674 E18.01921
G1 X43.639 Y70.914 E18.05758
G1 X43.6 Y70.156 E18.09545
G1 X43.6 Y51.156 E19.04336
G1 X43.64 Y50.388 E19.08173
G1 X43.759 Y49.628 E19.12011
G1 X43.957 Y48.885 E19.15847
G1 X44.231 Y48.166 E19.19686
G1 X44.578 Y47.48 E19.23521
G1 X44.994 Y46.833 E19.27359
G1 X45.475 Y46.233 E19.31196
G1 X46.016 Y45.686 E19.35034
G0 F3600 X46.408 Y45.872
G1 F1800 X46.998 Y45.413 E19.38763
G1 X47.634 Y45.018 E19.42498
G1 X48.308 Y44.694 E19.46229
G1 X49.013 Y44.444 E19.49961
G1 X49.741 Y44.27 E19.53695
G1 X50.483 Y44.175 E19.57428
G1 X51 Y44.156 E19.60009
G1 X89 Y44.156 E21.49591
G1 X89.747 Y44.196 E21.53324
G1 X90.485 Y44.315 E21.57053
G1 X91.207 Y44.513 E21.60788
G1 X91.903 Y44.786 E21.64518
G1 X92.566 Y45.133 E21.68251
G1 X93.189 Y45.548 E21.71986
G1 X93.763 Y46.027 E21.75716
G1 X94.284 Y46.564 E21.79449
G1 X94.743 Y47.154 E21.83178
G1 X95.138 Y47.79 E21.86913
G1 X95.462 Y48.464 E21.90644
G1 X95.712 Y49.169 E21.94376
G1 X95.886 Y49.897 E21.9811
G1 X95.981 Y50.639 E22.01842
G1 X96 Y51.156 E22.04423
G1 X96 Y70.156 E22.99215
G1 X95.96 Y70.903 E23.02947
G1 X95.841 Y71.641 E23.06676
G1 X95.665 Y72.296 E23.1006
G1 X89.666 Y90.984 E24.07981
G1 X89.4 Y91.683 E24.11712
G1 X89.06 Y92.349 E24.15443
G1 X88.652 Y92.976 E24.19175
G1 X88.178 Y93.555 E24.22908
G1 X87.646 Y94.081 E24.2664
G1 X87.061 Y94.547 E24.30372
G1 X86.429 Y94.947 E24.34103
G1 X85.758 Y95.278 E24.37836
G1 X85.056 Y95.536 E24.41568
G1 X84.33 Y95.717 E24.453
G1 X83.589 Y95.819 E24.49032
G1 X82.841 Y95.842 E24.52766
G1 X82.095 Y95.785 E24.56498
G1 X81.36 Y95.649 E24.60228
G1 X80.643 Y95.435 E24.63961
G1 X79.953 Y95.146 E24.67693
G1 X79.298 Y94.784 E24.71426
G1 X78.685 Y94.355 E24.75159
G1 X78.122 Y93.863 E24.78889
G1 X77.614 Y93.314 E24.82621
G1 X77.168 Y92.714 E24.86351
G1 X76.936 Y92.34 E24.88547
G1 X76.844 Y92.18 E24.89467
G1 X75.662 Y90.867 E24.98281
G1 X74.231 Y89.828 E25.07104
G1 X72.616 Y89.109 E25.15924
G1 X70.885 Y88.741 E25.24753
G1 X69.115 Y88.741 E25.33583
G1 X67.384 Y89.109 E25.42412
G1 X65.769 Y89.828 E25.51232
G1 X64.338 Y90.867 E25.60055
G1 X63.156 Y92.18 E25.68868
G1 X63.064 Y92.34 E25.69789
G1 X62.656 Y92.967 E25.73521
G1 X62.184 Y93.547 E25.77252
G1 X61.652 Y94.074 E25.80988
G1 X61.067 Y94.54 E25.84719
G1 X60.436 Y94.942 E25.88452
G1 X59.766 Y95.274 E25.92183
G1 X59.064 Y95.532 E25.95914
G1 X58.338 Y95.715 E25.99649
G1 X57.598 Y95.818 E26.03377
G1 X56.85 Y95.842 E26.0711
G1 X56.104 Y95.787 E26.10842
G1 X55.368 Y95.651 E26.14576
G1 X54.651 Y95.438 E26.18308
G1 X53.961 Y95.15 E26.22038
G1 X53.305 Y94.79 E26.25772
G1 X52.692 Y94.362 E26.29501
G1 X52.127 Y93.871 E26.33236
G1 X51.619 Y93.322 E26.36968
G1 X51.172 Y92.723 E26.40696
G1 X50.791 Y92.079 E26.4443
G1 X50.481 Y91.398 E26.48162
G1 X50.334 Y90.984 E26.50354
G1 X44.335 Y72.296 E27.48275
G1 X44.145 Y71.572 E27.52009
G1 X44.033 Y70.832 E27.55743
G1 X44 Y70.156 E27.5912
G1 X44 Y51.156 E28.53911
G1 X44.04 Y50.409 E28.57643
G1 X44.159 Y49.671 E28.61373
G1 X44.357 Y48.949 E28.65108
G1 X44.63 Y48.253 E28.68838
G1 X44.977 Y47.59 E28.72571
G1 X45.392 Y46.967 E28.76306
G1 X45.871 Y46.393 E28.80036
G1 X46.408 Y45.872 E28.83769
G0 F3600 X46.265 Y46.558
G1 F1800 X46.799 Y46.065 E28.87394
G1 X47.384 Y45.635 E28.91017
G1 X48.013 Y45.271 E28.94642
G1 X48.678 Y44.978 E28.98268
G1 X49.371 Y44.76 E29.01892
G1 X50.083 Y44.62 E29.05512
G1 X51 Y44.556 E29.10098
G1 X89 Y44.556 E30.99681
G1 X89.725 Y44.596 E31.03304
G1 X90.442 Y44.715 E31.0693
G1 X91.141 Y44.913 E31.10554
G1 X91.814 Y45.186 E31.14178
G1 X92.453 Y45.531 E31.17801
G1 X93.05 Y45.945 E31.21425
G1 X93.598 Y46.421 E31.25047
G1 X94.091 Y46.955 E31.28672
G1 X94.521 Y47.54 E31.32295
G1 X94.885 Y48.169 E31.3592
G1 X95.178 Y48.834 E31.39546
G1 X95.396 Y49.527 E31.4317
G1 X95.536 Y50.239 E31.4679
G1 X95.6 Y51.156 E31.51376
G1 X95.6 Y70.156 E32.46168
G1 X95.56 Y70.881 E32.4979
G1 X95.441 Y71.598 E32.53416
G1 X95.284 Y72.173 E32.5639
G1 X89.285 Y90.861 E33.54311
G1 X89.025 Y91.54 E33.57938
G1 X88.693 Y92.185 E33.61558
G1 X88.291 Y92.791 E33.65186
G1 X87.825 Y93.348 E33.68809
G1 X87.301 Y93.851 E33.72433
G1 X86.725 Y94.293 E33.76055
G1 X86.104 Y94.669 E33.79677
G1 X85.445 Y94.975 E33.83302
G1 X84.756 Y95.206 E33.86927
G1 X84.046 Y95.361 E33.90553
G1 X83.324 Y95.436 E33.94174
G1 X82.598 Y95.432 E33.97796
G1 X81.876 Y95.347 E34.01423
G1 X81.168 Y95.184 E34.05048
G1 X80.483 Y94.945 E34.08667
G1 X79.828 Y94.631 E34.12291
G1 X79.211 Y94.247 E34.15917
G1 X78.64 Y93.798 E34.19541
G1 X78.122 Y93.289 E34.23164
G1 X77.663 Y92.726 E34.26788
G1 X77.283 Y92.14 E34.30272
G1 X77.171 Y91.945 E34.31394
G1 X75.933 Y90.57 E34.40625
G1 X74.427 Y89.476 E34.49912
G1 X72.744 Y88.727 E34.59102
G1 X70.925 Y88.341 E34.68379
G1 X69.075 Y88.341 E34.77609
G1 X67.256 Y88.727 E34.86886
G1 X65.573 Y89.476 E34.96077
G1 X64.067 Y90.57 E35.05363
G1 X62.829 Y91.945 E35.14594
G1 X62.717 Y92.14 E35.15716
G1 X62.32 Y92.748 E35.19339
G1 X61.859 Y93.31 E35.22965
G1 X61.339 Y93.817 E35.26588
G1 X60.766 Y94.263 E35.30211
G1 X60.148 Y94.644 E35.33833
G1 X59.491 Y94.955 E35.3746
G1 X58.805 Y95.192 E35.4108
G1 X58.096 Y95.352 E35.44707
G1 X57.374 Y95.433 E35.48331
G1 X56.648 Y95.435 E35.51953
G1 X55.926 Y95.356 E35.55577
G1 X55.217 Y95.199 E35.592
G1 X54.529 Y94.964 E35.62827
G1 X53.872 Y94.656 E35.66447
G1 X53.252 Y94.277 E35.70072
G1 X52.677 Y93.832 E35.737
G1 X52.155 Y93.327 E35.77323
G1 X51.692 Y92.768 E35.80945
G1 X51.293 Y92.161 E35.84569
G1 X50.963 Y91.514 E35.88192
G1 X50.715 Y90.861 E35.91677
G1 X44.716 Y72.173 E36.89598
G1 X44.532 Y71.47 E36.93223
G1 X44.427 Y70.752 E36.96843
G1 X44.4 Y70.156 E36.9982
G1 X44.4 Y51.156 E37.94611
G1 X44.44 Y50.431 E37.98234
G1 X44.559 Y49.714 E38.0186
G1 X44.757 Y49.015 E38.05484
G1 X45.03 Y48.342 E38.09108
G1 X45.375 Y47.703 E38.12731
G1 X45.789 Y47.106 E38.16355
G1 X46.265 Y46.558 E38.19977
G0 F3600 X46.659 Y46.729
G1 F1800 X47.189 Y46.265 E38.23491
G1 X47.768 Y45.865 E38.27002
G1 X48.389 Y45.533 E38.30515
G1 X49.043 Y45.273 E38.34026
G1 X49.723 Y45.089 E38.37541
G1 X50.419 Y44.983 E38.41053
G1 X51 Y44.956 E38.43955
G1 X89 Y44.956 E40.33538
G1 X89.703 Y44.996 E40.37051
G1 X90.397 Y45.115 E40.40564
G1 X91.072 Y45.313 E40.44073
G1 X91.721 Y45.585 E40.47584
G1 X92.335 Y45.93 E40.51098
G1 X92.906 Y46.341 E40.54607
G1 X93.427 Y46.815 E40.58122
G1 X93.891 Y47.345 E40.61636
G1 X94.291 Y47.924 E40.65147
G1 X94.623 Y48.545 E40.6866
G1 X94.883 Y49.199 E40.72171
G1 X95.067 Y49.879 E40.75686
G1 X95.173 Y50.575 E40.79198
G1 X95.2 Y51.156 E40.821
G1 X95.2 Y70.156 E41.76891
G1 X95.16 Y70.859 E41.80404
G1 X95.041 Y71.553 E41.83917
G1 X94.903 Y72.051 E41.86495
G1 X88.904 Y90.739 E42.84416
G1 X88.651 Y91.396 E42.87928
G1 X88.326 Y92.02 E42.91439
G1 X87.931 Y92.603 E42.94952
G1 X87.473 Y93.138 E42.98465
G1 X86.958 Y93.617 E43.01974
G1 X86.391 Y94.035 E43.05489
G1 X85.781 Y94.386 E43.09
G1 X85.135 Y94.665 E43.12511
G1 X84.461 Y94.87 E43.16025
G1 X83.768 Y94.996 E43.19539
G1 X83.066 Y95.044 E43.2305
G1 X82.363 Y95.011 E43.26561
G1 X81.668 Y94.899 E43.30073
G1 X80.99 Y94.709 E43.33586
G1 X80.338 Y94.443 E43.37099
G1 X79.721 Y94.105 E43.40609
G1 X79.145 Y93.699 E43.44125
G1 X78.62 Y93.231 E43.47634
G1 X78.151 Y92.706 E43.51146
G1 X77.63 Y91.94 E43.55767
G1 X77.498 Y91.711 E43.57086
G1 X76.201 Y90.271 E43.66755
G1 X74.632 Y89.131 E43.76431
G1 X72.867 Y88.345 E43.8607
G1 X70.966 Y87.941 E43.95766
G1 X69.034 Y87.941 E44.05405
G1 X67.133 Y88.345 E44.15101
G1 X65.368 Y89.131 E44.2474
G1 X63.799 Y90.271 E44.34416
G1 X62.502 Y91.711 E44.44084
G1 X62.37 Y91.94 E44.45403
G1 X61.985 Y92.529 E44.48914
G1 X61.535 Y93.071 E44.52428
G1 X61.027 Y93.558 E44.55939
G1 X60.466 Y93.984 E44.59454
G1 X59.861 Y94.344 E44.62966
G1 X59.219 Y94.633 E44.66478
G1 X58.549 Y94.847 E44.69987
G1 X57.858 Y94.984 E44.73502
G1 X57.157 Y95.042 E44.77011
G1 X56.453 Y95.02 E44.80525
G1 X55.756 Y94.918 E44.8404
G1 X55.076 Y94.738 E44.87549
G1 X54.42 Y94.482 E44.91062
G1 X53.797 Y94.153 E44.94577
G1 X53.216 Y93.756 E44.98088
G1 X52.684 Y93.296 E45.01596
G1 X52.207 Y92.778 E45.0511
G1 X51.792 Y92.209 E45.08623
G1 X51.444 Y91.597 E45.12136
G1 X51.096 Y90.739 E45.16755
G1 X45.097 Y72.051 E46.14676
G1 X44.92 Y71.37 E46.18186
G1 X44.822 Y70.672 E46.21702
G1 X44.8 Y70.156 E46.24279
G1 X44.8 Y51.156 E47.19071
G1 X44.84 Y50.453 E47.22583
G1 X44.959 Y49.759 E47.26096
G1 X45.157 Y49.084 E47.29606
G1 X45.429 Y48.435 E47.33117
G1 X45.774 Y47.821 E47.3663
G1 X46.185 Y47.25 E47.4014
G1 X46.659 Y46.729 E47.43654
G0 F3600 X47.053 Y46.907
G1 F1800 X47.578 Y46.473 E47.47053
G1 X48.15 Y46.104 E47.50449
G1 X48.762 Y45.805 E47.53847
G1 X49.404 Y45.58 E47.57241
G1 X50.069 Y45.431 E47.60641
G1 X51 Y45.356 E47.65301
G1 X89 Y45.356 E49.54883
G1 X89.68 Y45.396 E49.58282
G1 X90.35 Y45.515 E49.61677
G1 X91.002 Y45.712 E49.65075
G1 X91.626 Y45.984 E49.68471
G1 X92.214 Y46.328 E49.7187
G1 X92.758 Y46.738 E49.75268
G1 X93.249 Y47.209 E49.78663
G1 X93.683 Y47.734 E49.82061
G1 X94.052 Y48.306 E49.85457
G1 X94.351 Y48.918 E49.88855
G1 X94.576 Y49.56 E49.92249
G1 X94.725 Y50.225 E49.95649
G1 X94.8 Y51.156 E50.00309
G1 X94.8 Y70.156 E50.951
G1 X94.76 Y70.836 E50.98499
G1 X94.641 Y71.506 E51.01894
G1 X94.522 Y71.929 E51.04086
G1 X88.523 Y90.617 E52.02007
G1 X88.278 Y91.252 E52.05402
G1 X87.959 Y91.853 E52.08797
G1 X87.572 Y92.414 E52.12197
G1 X87.122 Y92.925 E52.15594
G1 X86.616 Y93.38 E52.18989
G1 X86.059 Y93.772 E52.22387
G1 X85.461 Y94.097 E52.25783
G1 X84.828 Y94.349 E52.29182
G1 X84.171 Y94.525 E52.32575
G1 X83.497 Y94.623 E52.35973
G1 X82.816 Y94.641 E52.39372
G1 X82.138 Y94.579 E52.42768
G1 X81.472 Y94.439 E52.46164
G1 X80.827 Y94.221 E52.49561
G1 X80.212 Y93.929 E52.52957
G1 X79.635 Y93.567 E52.56355
G1 X79.104 Y93.14 E52.59755
G1 X78.628 Y92.654 E52.63149
G1 X78.211 Y92.115 E52.66549
G1 X77.976 Y91.741 E52.68752
G1 X77.82 Y91.471 E52.70308
G1 X76.47 Y89.971 E52.80376
G1 X74.835 Y88.783 E52.90459
G1 X72.987 Y87.961 E53.0055
G1 X71.011 Y87.541 E53.10628
G1 X68.989 Y87.541 E53.20716
G1 X67.013 Y87.961 E53.30795
G1 X65.165 Y88.783 E53.40885
G1 X63.53 Y89.971 E53.50968
G1 X62.18 Y91.471 E53.61036
G1 X62.024 Y91.741 E53.62592
G1 X61.65 Y92.309 E53.65985
G1 X61.212 Y92.831 E53.69384
G1 X60.715 Y93.297 E53.72783
G1 X60.168 Y93.702 E53.76179
G1 X59.577 Y94.04 E53.79576
G1 X58.95 Y94.306 E53.82974
G1 X58.297 Y94.497 E53.86368
G1 X57.625 Y94.61 E53.89768
G1 X56.945 Y94.644 E53.93164
G1 X56.266 Y94.597 E53.9656
G1 X55.597 Y94.472 E53.99955
G1 X54.947 Y94.269 E54.03353
G1 X54.325 Y93.991 E54.06752
G1 X53.74 Y93.642 E54.1015
G1 X53.201 Y93.227 E54.13544
G1 X52.713 Y92.752 E54.16942
G1 X52.285 Y92.223 E54.20336
G1 X51.921 Y91.647 E54.23736
