;FLAVOR:Repetier
;TIME:2067
;Generated with Cura_SteamEngine 3.4.1
M104 S200
M109 S200
M82 ;absolute extrusion mode
G28 ;Home
G1 X0 Y0 Z15.0 F6000 ;Move the platform down 15mm
G92 E0
G1 F200 E3
G92 E0
G92 E0
G1 F1500 E-6.5
;LAYER_COUNT:69
;LAYER:0
M107
G0 F3600 X45.623 Y49.568 Z0.3
;TYPE:SKIRT
G1 F1500 E0
G1 F1800 X46.222 Y49.053 E0.03941
G1 X46.87 Y48.602 E0.0788
G1 X47.561 Y48.218 E0.11824
G1 X48.286 Y47.906 E0.15762
G1 X49.039 Y47.669 E0.197
G1 X49.813 Y47.51 E0.23642
G1 X50.598 Y47.429 E0.27579
G1 X51 Y47.419 E0.29586
G1 X89 Y47.419 E2.19168
G1 X89.789 Y47.459 E2.2311
G1 X90.569 Y47.578 E2.27046
G1 X91.334 Y47.776 E2.30989
G1 X92.074 Y48.05 E2.34925
G1 X92.783 Y48.398 E2.38866
G1 X93.454 Y48.816 E2.4281
G1 X94.078 Y49.299 E2.46747
G1 X94.651 Y49.842 E2.50685
G1 X95.166 Y50.441 E2.54626
G1 X95.617 Y51.089 E2.58565
G1 X96.001 Y51.78 E2.62509
G1 X96.313 Y52.505 E2.66447
G1 X96.55 Y53.258 E2.70385
G1 X96.709 Y54.032 E2.74327
G1 X96.79 Y54.817 E2.78264
G1 X96.8 Y55.219 E2.80271
G1 X96.8 Y74.218 E3.75057
G1 X96.76 Y75.007 E3.78998
G1 X96.641 Y75.787 E3.82935
G1 X96.443 Y76.552 E3.86877
G1 X96.233 Y77.137 E3.89978
G1 X91.971 Y87.7 E4.46805
G1 X91.639 Y88.416 E4.50743
G1 X91.236 Y89.095 E4.54682
G1 X90.767 Y89.73 E4.5862
G1 X90.235 Y90.314 E4.62562
G1 X89.648 Y90.842 E4.66501
G1 X89.01 Y91.307 E4.70439
G1 X88.328 Y91.706 E4.74381
G1 X87.61 Y92.033 E4.78317
G1 X86.862 Y92.286 E4.82257
G1 X86.092 Y92.463 E4.86199
G1 X85.308 Y92.56 E4.9014
G1 X84.519 Y92.578 E4.94077
G1 X83.731 Y92.516 E4.98021
G1 X82.954 Y92.374 E5.01961
G1 X82.196 Y92.155 E5.05898
G1 X81.463 Y91.86 E5.0984
G1 X80.764 Y91.493 E5.13778
G1 X80.106 Y91.057 E5.17716
G1 X79.495 Y90.556 E5.21659
G1 X78.938 Y89.996 E5.25599
G1 X78.44 Y89.383 E5.29539
G1 X78.044 Y88.785 E5.33118
G1 X77.639 Y88.107 E5.37058
G1 X77.109 Y87.394 E5.4149
G1 X76.493 Y86.714 E5.46068
G1 X75.834 Y86.117 E5.50504
G1 X75.109 Y85.579 E5.55008
G1 X74.33 Y85.112 E5.59539
G1 X73.513 Y84.726 E5.64047
G1 X72.671 Y84.425 E5.68508
G1 X71.798 Y84.206 E5.72999
G1 X70.901 Y84.073 E5.77523
G1 X70 Y84.029 E5.82023
G1 X69.099 Y84.073 E5.86524
G1 X68.202 Y84.206 E5.91048
G1 X67.329 Y84.425 E5.95538
G1 X66.487 Y84.726 E5.99999
G1 X65.67 Y85.112 E6.04507
G1 X64.89 Y85.58 E6.09046
G1 X64.172 Y86.112 E6.13504
G1 X63.495 Y86.726 E6.18064
G1 X62.898 Y87.385 E6.225
G1 X62.357 Y88.115 E6.27033
G1 X61.955 Y88.786 E6.30935
G1 X61.516 Y89.442 E6.34873
G1 X61.012 Y90.051 E6.38817
G1 X60.45 Y90.605 E6.42754
G1 X59.835 Y91.1 E6.46693
G1 X59.172 Y91.53 E6.50636
G1 X58.47 Y91.891 E6.54574
G1 X57.735 Y92.179 E6.58512
G1 X56.974 Y92.391 E6.62453
G1 X56.196 Y92.525 E6.66392
G1 X55.408 Y92.58 E6.70333
G1 X54.619 Y92.554 E6.74271
G1 X53.836 Y92.45 E6.78212
G1 X53.068 Y92.266 E6.82152
G1 X52.322 Y92.006 E6.86093
G1 X51.607 Y91.672 E6.90031
G1 X50.929 Y91.267 E6.93971
G1 X50.295 Y90.795 E6.97914
G1 X49.713 Y90.262 E7.01851
G1 X49.187 Y89.673 E7.05791
G1 X48.723 Y89.034 E7.09731
G1 X48.327 Y88.351 E7.1367
G1 X48.029 Y87.7 E7.17242
G1 X43.767 Y77.137 E7.74069
G1 X43.509 Y76.39 E7.78011
G1 X43.327 Y75.622 E7.81949
G1 X43.225 Y74.839 E7.85889
G1 X43.2 Y74.218 E7.88989
G1 X43.2 Y55.219 E8.83776
G1 X43.24 Y54.43 E8.87717
G1 X43.359 Y53.65 E8.91653
G1 X43.557 Y52.885 E8.95596
G1 X43.831 Y52.145 E8.99533
G1 X44.179 Y51.436 E9.03473
G1 X44.597 Y50.765 E9.07417
G1 X45.08 Y50.141 E9.11354
G1 X45.623 Y49.568 E9.15292
G0 F3600 X46.016 Y49.749
G1 F1800 X46.611 Y49.261 E9.19131
G1 X47.253 Y48.838 E9.22967
G1 X47.936 Y48.483 E9.26807
G1 X48.651 Y48.202 E9.3064
G1 X49.393 Y47.996 E9.34482
G1 X50.151 Y47.868 E9.38317
G1 X51 Y47.819 E9.4256
G1 X89 Y47.819 E11.32143
G1 X89.768 Y47.859 E11.3598
G1 X90.528 Y47.978 E11.39817
G1 X91.271 Y48.176 E11.43654
G1 X91.99 Y48.45 E11.47492
G1 X92.676 Y48.797 E11.51328
G1 X93.323 Y49.213 E11.55165
G1 X93.923 Y49.694 E11.59002
G1 X94.47 Y50.235 E11.6284
G1 X94.958 Y50.83 E11.66679
G1 X95.381 Y51.472 E11.70515
G1 X95.736 Y52.155 E11.74355
G1 X96.017 Y52.87 E11.78188
G1 X96.223 Y53.612 E11.8203
G1 X96.351 Y54.37 E11.85865
G1 X96.4 Y55.219 E11.90108
G1 X96.4 Y74.218 E12.84894
G1 X96.36 Y74.986 E12.88731
G1 X96.241 Y75.746 E12.92569
G1 X96.043 Y76.489 E12.96405
G1 X95.862 Y76.987 E12.99049
G1 X91.6 Y87.55 E13.55876
G1 X91.276 Y88.247 E13.5971
G1 X90.881 Y88.907 E13.63548
G1 X90.419 Y89.523 E13.67389
G1 X89.897 Y90.087 E13.71223
G1 X89.318 Y90.593 E13.7506
G1 X88.69 Y91.037 E13.78897
G1 X88.019 Y91.414 E13.82736
G1 X87.313 Y91.719 E13.86573
G1 X86.579 Y91.948 E13.90409
G1 X85.825 Y92.101 E13.94248
G1 X85.059 Y92.174 E13.98087
G1 X84.29 Y92.167 E14.01923
G1 X83.526 Y92.081 E14.05759
G1 X82.775 Y91.916 E14.09595
G1 X82.045 Y91.673 E14.13434
G1 X81.344 Y91.357 E14.1727
G1 X80.68 Y90.969 E14.21107
G1 X80.059 Y90.514 E14.24947
G1 X79.489 Y89.998 E14.28783
G1 X78.976 Y89.425 E14.3262
G1 X78.388 Y88.58 E14.37756
G1 X77.976 Y87.892 E14.41757
G1 X77.416 Y87.137 E14.46447
G1 X76.781 Y86.436 E14.51166
G1 X76.081 Y85.802 E14.55878
G1 X75.325 Y85.241 E14.60574
G1 X74.524 Y84.761 E14.65233
G1 X73.677 Y84.361 E14.69906
G1 X72.78 Y84.04 E14.74659
G1 X71.872 Y83.813 E14.79329
G1 X70.939 Y83.674 E14.84035
G1 X70 Y83.628 E14.88725
G1 X69.061 Y83.674 E14.93416
G1 X68.128 Y83.813 E14.98122
G1 X67.22 Y84.04 E15.02791
G1 X66.323 Y84.361 E15.07544
G1 X65.476 Y84.761 E15.12217
G1 X64.673 Y85.242 E15.16887
G1 X63.92 Y85.801 E15.21566
G1 X63.217 Y86.438 E15.26299
G1 X62.583 Y87.138 E15.31011
G1 X62.027 Y87.888 E15.35669
G1 X61.612 Y88.581 E15.39699
G1 X61.183 Y89.219 E15.43534
G1 X60.69 Y89.81 E15.47374
G1 X60.139 Y90.346 E15.51209
G1 X59.535 Y90.823 E15.55049
G1 X58.885 Y91.233 E15.58883
G1 X58.196 Y91.575 E15.6272
G1 X57.475 Y91.842 E15.66556
G1 X56.73 Y92.034 E15.70395
G1 X55.969 Y92.147 E15.74233
G1 X55.2 Y92.181 E15.78073
G1 X54.433 Y92.134 E15.81907
G1 X53.674 Y92.009 E15.85745
G1 X52.932 Y91.805 E15.89584
G1 X52.216 Y91.525 E15.93419
G1 X51.532 Y91.172 E15.97259
G1 X50.889 Y90.751 E16.01094
G1 X50.293 Y90.264 E16.04934
G1 X49.751 Y89.719 E16.08768
G1 X49.268 Y89.12 E16.12607
G1 X48.85 Y88.475 E16.16442
G1 X48.4 Y87.55 E16.21574
G1 X44.138 Y76.987 E16.78401
G1 X43.887 Y76.26 E16.82238
G1 X43.714 Y75.51 E16.86078
G1 X43.619 Y74.747 E16.89914
G1 X43.6 Y74.218 E16.92555
G1 X43.6 Y55.219 E17.87341
G1 X43.64 Y54.451 E17.91178
G1 X43.759 Y53.691 E17.95016
G1 X43.957 Y52.948 E17.98852
G1 X44.231 Y52.229 E18.02691
G1 X44.578 Y51.543 E18.06526
G1 X44.994 Y50.896 E18.10364
G1 X45.475 Y50.296 E18.142
G1 X46.016 Y49.749 E18.18039
G0 F3600 X46.408 Y49.935
G1 F1800 X46.998 Y49.476 E18.21768
G1 X47.634 Y49.081 E18.25503
G1 X48.308 Y48.757 E18.29234
G1 X49.013 Y48.507 E18.32966
G1 X49.741 Y48.333 E18.367
G1 X50.483 Y48.238 E18.40432
G1 X51 Y48.219 E18.43013
G1 X89 Y48.219 E20.32596
G1 X89.747 Y48.259 E20.36328
G1 X90.485 Y48.378 E20.40058
G1 X91.207 Y48.576 E20.43793
G1 X91.903 Y48.849 E20.47523
G1 X92.566 Y49.196 E20.51256
G1 X93.189 Y49.611 E20.54991
G1 X93.763 Y50.09 E20.58721
G1 X94.284 Y50.627 E20.62453
G1 X94.743 Y51.217 E20.66183
G1 X95.138 Y51.853 E20.69918
G1 X95.462 Y52.527 E20.73649
G1 X95.712 Y53.232 E20.77381
G1 X95.886 Y53.96 E20.81115
G1 X95.981 Y54.702 E20.84847
G1 X96 Y55.219 E20.87428
G1 X96 Y74.218 E21.82215
G1 X95.96 Y74.965 E21.85947
G1 X95.841 Y75.703 E21.89676
G1 X95.643 Y76.425 E21.93411
G1 X95.492 Y76.837 E21.956
G1 X91.23 Y87.4 E22.52427
G1 X90.913 Y88.078 E22.56161
G1 X90.526 Y88.718 E22.59893
G1 X90.073 Y89.313 E22.63624
G1 X89.559 Y89.857 E22.67358
G1 X88.989 Y90.342 E22.71091
G1 X88.372 Y90.764 E22.74821
G1 X87.712 Y91.118 E22.78557
G1 X87.019 Y91.399 E22.82288
G1 X86.3 Y91.605 E22.8602
G1 X85.563 Y91.732 E22.89751
G1 X84.816 Y91.781 E22.93485
G1 X84.069 Y91.749 E22.97216
G1 X83.329 Y91.638 E23.00949
G1 X82.606 Y91.448 E23.04678
G1 X81.906 Y91.183 E23.08413
G1 X81.239 Y90.844 E23.12145
G1 X80.612 Y90.436 E23.15877
G1 X80.032 Y89.963 E23.19611
G1 X79.506 Y89.432 E23.2334
G1 X79.04 Y88.847 E23.27072
G1 X78.731 Y88.375 E23.29886
G1 X78.306 Y87.664 E23.34019
G1 X77.722 Y86.878 E23.38904
G1 X77.065 Y86.153 E23.43785
G1 X76.344 Y85.5 E23.48638
G1 X75.544 Y84.906 E23.5361
G1 X74.719 Y84.412 E23.58407
G1 X73.821 Y83.987 E23.63364
G1 X72.901 Y83.658 E23.68238
G1 X71.946 Y83.419 E23.7315
G1 X70.987 Y83.277 E23.77986
G1 X70 Y83.228 E23.82916
G1 X69.013 Y83.277 E23.87847
G1 X68.054 Y83.419 E23.92683
G1 X67.099 Y83.658 E23.97595
G1 X66.179 Y83.987 E24.02469
G1 X65.281 Y84.412 E24.07426
G1 X64.455 Y84.907 E24.1223
G1 X63.657 Y85.499 E24.17187
G1 X62.934 Y86.154 E24.22054
G1 X62.281 Y86.875 E24.26907
G1 X61.691 Y87.669 E24.31843
G1 X61.269 Y88.375 E24.35946
G1 X60.851 Y88.996 E24.39681
G1 X60.369 Y89.568 E24.43413
G1 X59.829 Y90.086 E24.47146
G1 X59.237 Y90.543 E24.50877
G1 X58.599 Y90.934 E24.5461
G1 X57.924 Y91.255 E24.58339
G1 X57.218 Y91.502 E24.62071
G1 X56.489 Y91.673 E24.65806
G1 X55.747 Y91.764 E24.69536
G1 X54.999 Y91.776 E24.73268
G1 X54.254 Y91.708 E24.77001
G1 X53.52 Y91.561 E24.80735
G1 X52.807 Y91.336 E24.84465
G1 X52.121 Y91.037 E24.88199
G1 X51.472 Y90.666 E24.91928
G1 X50.865 Y90.228 E24.95663
G1 X50.309 Y89.728 E24.99393
G1 X49.809 Y89.171 E25.03128
G1 X49.372 Y88.564 E25.06859
G1 X49.002 Y87.914 E25.10591
G1 X48.77 Y87.4 E25.13404
G1 X44.508 Y76.837 E25.70231
G1 X44.266 Y76.13 E25.73959
G1 X44.101 Y75.4 E25.77693
G1 X44.014 Y74.657 E25.81425
G1 X44 Y74.218 E25.83616
G1 X44 Y55.219 E26.78403
G1 X44.04 Y54.472 E26.82135
G1 X44.159 Y53.734 E26.85864
G1 X44.357 Y53.012 E26.896
G1 X44.63 Y52.316 E26.93329
G1 X44.977 Y51.653 E26.97063
G1 X45.392 Y51.03 E27.00797
G1 X45.871 Y50.456 E27.04527
G1 X46.408 Y49.935 E27.0826
G0 F3600 X46.265 Y50.621
G1 F1800 X46.799 Y50.128 E27.11886
G1 X47.384 Y49.698 E27.15508
G1 X48.013 Y49.334 E27.19134
G1 X48.678 Y49.041 E27.22759
G1 X49.371 Y48.823 E27.26384
G1 X50.083 Y48.683 E27.30004
G1 X51 Y48.619 E27.3459
G1 X89 Y48.619 E29.24173
G1 X89.725 Y48.659 E29.27795
G1 X90.442 Y48.778 E29.31421
G1 X91.141 Y48.976 E29.35046
G1 X91.814 Y49.249 E29.38669
G1 X92.453 Y49.594 E29.42292
G1 X93.05 Y50.008 E29.45917
G1 X93.598 Y50.484 E29.49538
G1 X94.091 Y51.018 E29.53164
G1 X94.521 Y51.603 E29.56786
G1 X94.885 Y52.232 E29.60412
G1 X95.178 Y52.897 E29.64037
G1 X95.396 Y53.59 E29.67662
G1 X95.536 Y54.302 E29.71282
G1 X95.6 Y55.219 E29.75868
G1 X95.6 Y74.218 E30.70654
G1 X95.56 Y74.943 E30.74277
G1 X95.441 Y75.66 E30.77903
G1 X95.121 Y76.688 E30.83274
G1 X90.859 Y87.251 E31.40101
G1 X90.55 Y87.908 E31.43724
G1 X90.171 Y88.528 E31.47349
G1 X89.727 Y89.102 E31.50969
G1 X89.222 Y89.624 E31.54593
G1 X88.662 Y90.088 E31.58221
G1 X88.055 Y90.487 E31.61845
G1 X87.408 Y90.817 E31.65469
G1 X86.729 Y91.074 E31.69091
G1 X86.025 Y91.254 E31.72716
G1 X85.306 Y91.357 E31.7634
G1 X84.58 Y91.379 E31.79964
G1 X83.856 Y91.322 E31.83587
G1 X83.143 Y91.185 E31.87209
G1 X82.449 Y90.971 E31.90832
G1 X81.782 Y90.682 E31.94459
G1 X81.152 Y90.322 E31.98079
G1 X80.564 Y89.894 E32.01707
G1 X80.028 Y89.404 E32.0533
G1 X79.548 Y88.859 E32.08954
G1 X79.074 Y88.169 E32.1313
G1 X78.642 Y87.446 E32.17332
G1 X78.033 Y86.627 E32.22424
G1 X77.347 Y85.87 E32.27521
G1 X76.589 Y85.183 E32.32624
G1 X75.773 Y84.577 E32.37695
G1 X74.901 Y84.055 E32.42766
G1 X73.977 Y83.618 E32.47865
G1 X73.016 Y83.274 E32.52957
G1 X72.034 Y83.028 E32.58008
G1 X71.014 Y82.877 E32.63152
G1 X70 Y82.827 E32.68217
G1 X68.986 Y82.877 E32.73282
G1 X67.966 Y83.028 E32.78427
G1 X66.984 Y83.274 E32.83477
G1 X66.023 Y83.618 E32.88569
G1 X65.099 Y84.055 E32.93669
G1 X64.227 Y84.577 E32.98739
G1 X63.41 Y85.184 E33.03817
G1 X62.651 Y85.872 E33.08928
G1 X61.964 Y86.63 E33.14032
G1 X61.358 Y87.447 E33.19107
G1 X60.925 Y88.17 E33.23311
G1 X60.519 Y88.772 E33.26934
G1 X60.048 Y89.325 E33.30558
G1 X59.52 Y89.824 E33.34182
G1 X58.94 Y90.261 E33.37805
G1 X58.316 Y90.632 E33.41427
G1 X57.654 Y90.932 E33.45053
G1 X56.964 Y91.158 E33.48675
G1 X56.253 Y91.306 E33.52299
G1 X55.53 Y91.376 E33.55923
G1 X54.803 Y91.365 E33.5955
G1 X54.083 Y91.275 E33.6317
G1 X53.376 Y91.106 E33.66797
G1 X52.693 Y90.86 E33.70418
G1 X52.04 Y90.541 E33.74044
G1 X51.427 Y90.152 E33.77666
G1 X50.86 Y89.698 E33.8129
G1 X50.346 Y89.185 E33.84913
G1 X49.892 Y88.618 E33.88537
G1 X49.503 Y88.004 E33.92163
G1 X49.141 Y87.251 E33.96332
G1 X44.879 Y76.688 E34.53159
G1 X44.645 Y76 E34.56784
G1 X44.488 Y75.291 E34.60407
G1 X44.4 Y74.218 E34.65778
G1 X44.4 Y55.219 E35.60565
G1 X44.44 Y54.494 E35.64187
G1 X44.559 Y53.777 E35.67813
G1 X44.757 Y53.078 E35.71438
G1 X45.03 Y52.405 E35.75061
G1 X45.375 Y51.766 E35.78684
G1 X45.789 Y51.169 E35.82309
G1 X46.265 Y50.621 E35.8593
G0 F3600 X46.659 Y50.792
G1 F1800 X47.189 Y50.328 E35.89444
G1 X47.768 Y49.928 E35.92955
G1 X48.389 Y49.596 E35.96468
G1 X49.043 Y49.336 E35.9998
G1 X49.723 Y49.152 E36.03494
G1 X50.419 Y49.046 E36.07007
G1 X51 Y49.019 E36.09908
G1 X89 Y49.019 E37.99491
G1 X89.703 Y49.059 E38.03004
G1 X90.397 Y49.178 E38.06517
G1 X91.072 Y49.376 E38.10026
G1 X91.721 Y49.648 E38.13537
G1 X92.335 Y49.993 E38.17051
G1 X92.906 Y50.404 E38.20561
G1 X93.427 Y50.878 E38.24075
G1 X93.891 Y51.408 E38.27589
G1 X94.291 Y51.987 E38.311
G1 X94.623 Y52.608 E38.34613
G1 X94.883 Y53.262 E38.38124
G1 X95.067 Y53.942 E38.41639
G1 X95.173 Y54.638 E38.45151
G1 X95.2 Y55.219 E38.48053
G1 X95.2 Y74.218 E39.4284
G1 X95.16 Y74.921 E39.46353
G1 X95.041 Y75.615 E39.49865
G1 X94.75 Y76.538 E39.54694
G1 X90.488 Y87.101 E40.11521
G1 X90.188 Y87.738 E40.15034
G1 X89.817 Y88.336 E40.18545
G1 X89.381 Y88.889 E40.22058
G1 X88.886 Y89.389 E40.25568
G1 X88.337 Y89.83 E40.29081
G1 X87.741 Y90.205 E40.32594
G1 X87.107 Y90.511 E40.36106
G1 X86.442 Y90.742 E40.39619
G1 X85.755 Y90.897 E40.43132
G1 X85.055 Y90.973 E40.46645
G1 X84.351 Y90.969 E40.50157
G1 X83.652 Y90.885 E40.5367
G1 X82.967 Y90.723 E40.57182
G1 X82.305 Y90.484 E40.60693
G1 X81.674 Y90.171 E40.64207
G1 X81.083 Y89.789 E40.67718
G1 X80.539 Y89.343 E40.71227
G1 X80.049 Y88.837 E40.74742
G1 X79.619 Y88.279 E40.78256
G1 X79.417 Y87.964 E40.80123
G1 X78.971 Y87.219 E40.84455
G1 X78.34 Y86.368 E40.8974
G1 X77.636 Y85.592 E40.94968
G1 X76.841 Y84.872 E41.00319
G1 X75.996 Y84.245 E41.05568
G1 X75.088 Y83.7 E41.10852
G1 X74.138 Y83.251 E41.16094
G1 X73.128 Y82.89 E41.21445
G1 X72.108 Y82.634 E41.26692
G1 X71.052 Y82.478 E41.32017
G1 X70 Y82.426 E41.37272
G1 X68.948 Y82.478 E41.42527
G1 X67.892 Y82.634 E41.47853
G1 X66.872 Y82.89 E41.53099
G1 X65.862 Y83.251 E41.5845
G1 X64.912 Y83.7 E41.63693
G1 X64.009 Y84.241 E41.68944
G1 X63.147 Y84.881 E41.74301
G1 X62.373 Y85.583 E41.79514
G1 X61.653 Y86.378 E41.84865
G1 X61.028 Y87.22 E41.90096
G1 X60.582 Y87.965 E41.94428
G1 X60.187 Y88.547 E41.97938
G1 X59.728 Y89.081 E42.01451
G1 X59.212 Y89.56 E42.04963
G1 X58.645 Y89.977 E42.08475
G1 X58.034 Y90.327 E42.11988
G1 X57.387 Y90.605 E42.15501
G1 X56.713 Y90.809 E42.19014
G1 X56.021 Y90.934 E42.22522
G1 X55.318 Y90.981 E42.26038
G1 X54.615 Y90.947 E42.29549
G1 X53.92 Y90.834 E42.33062
G1 X53.243 Y90.643 E42.36571
G1 X52.591 Y90.376 E42.40086
G1 X51.974 Y90.037 E42.43599
G1 X51.399 Y89.631 E42.4711
G1 X50.875 Y89.162 E42.50619
G1 X50.406 Y88.636 E42.54135
G1 X50 Y88.061 E42.57646
G1 X49.663 Y87.443 E42.61158
G1 X49.512 Y87.101 E42.63023
G1 X45.25 Y76.538 E43.1985
G1 X45.024 Y75.871 E43.23364
G1 X44.876 Y75.183 E43.26875
G1 X44.8 Y74.218 E43.31704
G1 X44.8 Y55.219 E44.2649
G1 X44.84 Y54.516 E44.30003
G1 X44.959 Y53.822 E44.33516
G1 X45.157 Y53.147 E44.37026
G1 X45.429 Y52.498 E44.40537
G1 X45.774 Y51.884 E44.4405
G1 X46.185 Y51.313 E44.4756
G1 X46.659 Y50.792 E44.51074
G0 F3600 X47.053 Y50.97
G1 F1800 X47.578 Y50.536 E44.54473
G1 X48.15 Y50.167 E44.57869
G1 X48.762 Y49.868 E44.61267
G1 X49.404 Y49.643 E44.64661
G1 X50.069 Y49.494 E44.68061
G1 X51 Y49.419 E44.72721
G1 X89 Y49.419 E46.62303
G1 X89.68 Y49.459 E46.65702
G1 X90.35 Y49.578 E46.69097
G1 X91.002 Y49.775 E46.72495
G1 X91.626 Y50.047 E46.75891
G1 X92.214 Y50.391 E46.79289
G1 X92.758 Y50.801 E46.82688
G1 X93.249 Y51.272 E46.86082
G1 X93.683 Y51.797 E46.89481
G1 X94.052 Y52.369 E46.92877
G1 X94.351 Y52.981 E46.96275
G1 X94.576 Y53.623 E46.99669
G1 X94.725 Y54.288 E47.03069
G1 X94.8 Y55.219 E47.07729
G1 X94.8 Y74.218 E48.02515
G1 X94.76 Y74.898 E48.05914
G1 X94.641 Y75.568 E48.09308
